src/svg/gem.svg

<svg height="1000" width="1125.0" xmlns="http://www.w3.org/2000/svg">
    <path d="m948.2 0l176.8 312.5h-197.5l-135.1-312.5h155.8z m-250 0l135.2 312.5h-541.8l135.2-312.5h271.4z m-521.4 0h155.8l-135.1 312.5h-197.5z m-176.8 375h196.7l240.2 491.6c2.9 6.1-5.3 11.5-9.8 6.4z m289.5 0h546l-267.5 621.5c-2 4.7-8.8 4.7-10.8 0z m398.6 491.6l240.2-491.6h196.7l-427.1 497.9c-4.5 5.2-12.7-0.2-9.8-6.3z" />
  </svg>

<svg height="1000" width="1125" xmlns="http://www.w3.org/2000/svg"><path d="M948.2 0L1125 312.5H927.5L792.4 0h155.8zm-250 0l135.2 312.5H291.6L426.8 0h271.4zM176.8 0h155.8L197.5 312.5H0L176.8 0zM0 375h196.7l240.2 491.6c2.9 6.1 -5.3 11.5 -9.8 6.4L0 375zm289.5 0h546L568 996.5c-2 4.7 -8.8 4.7 -10.8 0L289.5 375zm398.6 491.6L928.3 375H1125L697.9 872.9c-4.5 5.2 -12.7 -.2 -9.8 -6.3z"/></svg>
